!!!OTL: Minguo shijie zhenbuping
!!!ARE: Asia, China,ÿZhejiang Longquan
!! III, 635
!!!SCT: C1908
!!!YEM: Copyright 1995, estate of Helmut Schaffrath.
**kern
*ICvox
*Ivox
*M2/4
*k[f#c#]
*D:
{8b
8ff#
8ff#
16ff#
16ff#
=1
8ee
8ff#
8dd#
[8ee
=2
4.ee]
16dd
16b}
=3
{8dd#
8ee
8dd#
8ee
=4
8.ee
16dd
8b
8a
=5
4.b
8r}
=6
{8b
16dd
16dd
8b
16dd
16dd
=7
8ee
8dd
8ee
8r
=8
8ee
16dd
16dd
8b
8ee
=9
8ee
8b
8dd#
[8ee
=10
4.ee]
8r}
=11
{8b
16b
16dd
4ee
=12
8ee
16dd
16b
4b
=13
8dd#
8ee
8ee
8dd
=14
8.ee
16dd
8b
8a
=15
4.b
8r}
==
!!!AGN: Shange
!!!AMT: simple duple
!!!AIN: vox
!!!EED: Helmut Schaffrath
!!!EEV: 1.0
*-
!!!ONB: Tied note syntax fixed by Craig Sapp, 2004/05/03/
